src/assets/outline/MusicSquare.svg

<?xml version="1.0" encoding="UTF-8"?>
<svg width="24" height="24" viewBox="0 0 24 24" xmlns="http://www.w3.org/2000/svg">
 <path d="m15 22.75h-6c-5.43 0-7.75-2.32-7.75-7.75v-6c0-5.43 2.32-7.75 7.75-7.75h6c5.43 0 7.75 2.32 7.75 7.75v6c0 5.43-2.32 7.75-7.75 7.75zm-6-20c-4.61 0-6.25 1.64-6.25 6.25v6c0 4.61 1.64 6.25 6.25 6.25h6c4.61 0 6.25-1.64 6.25-6.25v-6c0-4.61-1.64-6.25-6.25-6.25h-6z"/>
 <path d="m8.4201 17.86c-1.28 0-2.32-1.04-2.32-2.32s1.04-2.32 2.32-2.32c1.28 0 2.32 1.04 2.32 2.32s-1.04 2.32-2.32 2.32zm0-3.14c-0.45 0-0.82 0.37-0.82 0.82s0.37 0.82 0.82 0.82c0.45001 0 0.82001-0.37 0.82001-0.82s-0.37-0.82-0.82001-0.82z"/>
 <path d="m9.9902 16.29c-0.41 0-0.75-0.34-0.75-0.75v-6.33c0-0.96 0.60002-1.74 1.5201-1.99l3.14-0.85999c0.95-0.26 1.55-0.01001 1.88 0.23999 0.48 0.37 0.7199 0.95005 0.7199 1.74v6.14c0 0.41-0.34 0.75-0.75 0.75s-0.75-0.34-0.75-0.75v-6.14c0-0.33-0.07-0.51005-0.13-0.55005-0.05-0.04-0.23-0.07999-0.58 0.01001l-3.1399 0.85999c-0.28 0.08-0.4101 0.25004-0.4101 0.54004v6.33c0 0.42-0.34 0.76-0.74997 0.76z"/>
 <path d="m14.18 16.81c-1.28 0-2.32-1.04-2.32-2.32s1.04-2.32 2.32-2.32 2.32 1.04 2.32 2.32-1.04 2.32-2.32 2.32zm0-3.14c-0.45 0-0.82 0.37-0.82 0.82s0.37 0.82 0.82 0.82 0.82-0.37 0.82-0.82-0.37-0.82-0.82-0.82z"/>
 <path d="m9.9898 11.79c-0.33 0-0.62997-0.22-0.71997-0.55-0.11-0.4 0.12997-0.81 0.52997-0.92l5.76-1.57c0.41-0.11 0.8099 0.13003 0.9199 0.53003s-0.1299 0.80997-0.5299 0.91997l-5.76 1.57c-0.07 0.01-0.14 0.02-0.20005 0.02z"/>
</svg>

<svg width="24" height="24" viewBox="0 0 24 24"  xmlns="http://www.w3.org/2000/svg">
<path d="M15 22.75H9C3.57 22.75 1.25 20.43 1.25 15V9C1.25 3.57 3.57 1.25 9 1.25H15C20.43 1.25 22.75 3.57 22.75 9V15C22.75 20.43 20.43 22.75 15 22.75ZM9 2.75C4.39 2.75 2.75 4.39 2.75 9V15C2.75 19.61 4.39 21.25 9 21.25H15C19.61 21.25 21.25 19.61 21.25 15V9C21.25 4.39 19.61 2.75 15 2.75H9Z" />
<path d="M8.4201 17.86C7.14011 17.86 6.1001 16.82 6.1001 15.54C6.1001 14.26 7.14011 13.22 8.4201 13.22C9.7001 13.22 10.7401 14.26 10.7401 15.54C10.7401 16.82 9.7001 17.86 8.4201 17.86ZM8.4201 14.72C7.9701 14.72 7.6001 15.09 7.6001 15.54C7.6001 15.99 7.9701 16.36 8.4201 16.36C8.87011 16.36 9.24011 15.99 9.24011 15.54C9.24011 15.09 8.87011 14.72 8.4201 14.72Z" />
<path d="M9.99023 16.2901C9.58023 16.2901 9.24023 15.9501 9.24023 15.5401V9.21011C9.24023 8.25011 9.84025 7.47006 10.7603 7.22006L13.9003 6.36007C14.8503 6.10007 15.4503 6.35006 15.7803 6.60006C16.2603 6.97006 16.5002 7.55011 16.5002 8.34011V14.4801C16.5002 14.8901 16.1602 15.2301 15.7502 15.2301C15.3402 15.2301 15.0002 14.8901 15.0002 14.4801V8.34011C15.0002 8.01011 14.9302 7.83006 14.8702 7.79006C14.8202 7.75006 14.6402 7.71007 14.2902 7.80007L11.1503 8.66006C10.8703 8.74006 10.7402 8.9101 10.7402 9.2001V15.5301C10.7402 15.9501 10.4002 16.2901 9.99023 16.2901Z" />
<path d="M14.1799 16.8099C12.8999 16.8099 11.8599 15.7699 11.8599 14.4899C11.8599 13.2099 12.8999 12.1699 14.1799 12.1699C15.4599 12.1699 16.4999 13.2099 16.4999 14.4899C16.4999 15.7699 15.4599 16.8099 14.1799 16.8099ZM14.1799 13.6699C13.7299 13.6699 13.3599 14.0399 13.3599 14.4899C13.3599 14.9399 13.7299 15.3099 14.1799 15.3099C14.6299 15.3099 14.9999 14.9399 14.9999 14.4899C14.9999 14.0399 14.6299 13.6699 14.1799 13.6699Z" />
<path d="M9.98985 11.7901C9.65985 11.7901 9.35988 11.5701 9.26988 11.2401C9.15988 10.8401 9.39985 10.4301 9.79985 10.3201L15.5599 8.7501C15.9699 8.6401 16.3698 8.88013 16.4798 9.28013C16.5898 9.68013 16.3499 10.0901 15.9499 10.2001L10.1899 11.7701C10.1199 11.7801 10.0499 11.7901 9.98985 11.7901Z" />
</svg>
